pix_core/i/privatefiles.svg

<svg preserveAspectRatio="xMinYMid meet" viewBox="0 0 576 512" xmlns="http://www.w3.org/2000/svg"><path d="m0 64c0-35.3 28.7-64 64-64h160v128c0 17.7 14.3 32 32 32h128v38.6c-73.9 20.9-128 88.8-128 169.4 0 59.1 29.1 111.3 73.7 143.3-3.2.5-6.4.7-9.7.7h-256c-35.3 0-64-28.7-64-64zm384 64h-128v-128zm-96 240a144 144 0 1 1 288 0 144 144 0 1 1 -288 0zm224 0c0-8.8-7.2-16-16-16h-128c-8.8 0-16 7.2-16 16s7.2 16 16 16h128c8.8 0 16-7.2 16-16z" fill="#fff"/></svg>

<svg xmlns="http://www.w3.org/2000/svg" viewBox="0 0 576 512" preserveAspectRatio="xMinYMid meet"><!--!Font Awesome Free 6.5.2 by @fontawesome - https://fontawesome.com License - https://fontawesome.com/license/free Copyright 2024 Fonticons, Inc.--><path fill="#fff" d="M0 64C0 28.7 28.7 0 64 0H224V128c0 17.7 14.3 32 32 32H384v38.6C310.1 219.5 256 287.4 256 368c0 59.1 29.1 111.3 73.7 143.3c-3.2 .5-6.4 .7-9.7 .7H64c-35.3 0-64-28.7-64-64V64zm384 64H256V0L384 128zM288 368a144 144 0 1 1 288 0 144 144 0 1 1 -288 0zm224 0c0-8.8-7.2-16-16-16H368c-8.8 0-16 7.2-16 16s7.2 16 16 16H496c8.8 0 16-7.2 16-16z"/></svg>
